**kern	**kern	**dynam
*part1	*part1	*part1
*staff2	*staff1	*
*I"Piano	*	*
*clefF4	*clefG2	*
*k[]	*k[]	*
=1	=1	=1
*^	*	*
12EL	2.C	(2ee	.
12G	.	.	.
12cJ	.	.	.
12EL	.	.	.
12G	.	.	.
12cJ	.	.	.
12FL	.	12ddL	.
12G	.	12cc	.
12BJ	.	12bJ)	.
=	=	=	=
12EL	2.C	4cc	.
12G	.	.	.
12cJ	.	.	.
12EL	.	4g	.
12G	.	.	.
12cJ	.	.	.
12FL	.	8r	.
12G	.	.	.
.	.	8g	.
12BJ	.	.	.
=	=	=	=
12EL	2.C	(2ee	.
12G	.	.	.
12cJ	.	.	.
12EL	.	.	.
12G	.	.	.
12cJ	.	.	.
12FL	.	12ddL	.
12G	.	12cc	.
12BJ	.	12bJ)	.
*v	*v	*	*
=	=	=
([2.C [2.G	((2.d 2.g 2.b	> mp
=	=	=
4.C]) 4.G] 4.c	4.e)) 4.g 4.cc	] pp
8r	(8c 8e	.
4GG	12dL 12f	.
.	12c 12e	.
.	12BJ) 12d	.
=	=	=
([2.CC [2.GG 2.D	(([2.G 2.B 2.f [2.g	> mp
=	=	=
2CC;]) 2GG] 2C	2G;])) 2c 2e 2g]	] pp
=:|!	=:|!	=:|!
*-	*-	*-
!!!system-decoration: {(s1,s2)}
